X: 60
T: JIG: Saddle the Pony
C: C: Trad.; S: Various
C: Set Leaders: Oleg, Anton, Tania
Z: Anton Zille ed.; Jdharv at The Session
N: https://thesession.org/members/26966/sets/99682
R: Jig
M: 6/8
L: 1/8
Q: 3/8=116
K: Gmaj
|:GBA G2B|def gdB|GBA G2B|AFD AFD|
GBA G2B|def gfg|e/f/ge dBA|BGG G2D:||
|:efe edB|def gfg|efe edB|dBA ABd|
efe edB|def gfg|e/f/ge dBA|1 BGG G2d:|2 BGG G2D||

